storage/app/icons/phosphoricons/bold/folders-bold.svg

<svg xmlns="http://www.w3.org/2000/svg" fill="currentColor" viewBox="0 0 256 256"><path d="M228 56h-68l-26.67-20a20.12 20.12 0 0 0-12-4H76a20 20 0 0 0-20 20v20H36a20 20 0 0 0-20 20v112a20 20 0 0 0 20 20h152.89A19.13 19.13 0 0 0 208 204.89V184h20.89A19.13 19.13 0 0 0 248 164.89V76a20 20 0 0 0-20-20m-44 144H40V96h40l28.8 21.6a12 12 0 0 0 7.2 2.4h68Zm40-40h-16v-44a20 20 0 0 0-20-20h-68L93.33 76a20.12 20.12 0 0 0-12-4H80V56h40l28.8 21.6A12 12 0 0 0 156 80h68Z"/></svg>

<svg xmlns="http://www.w3.org/2000/svg" viewBox="0 0 256 256" fill="currentColor"><path d="M228,56H160L133.33,36a20.12,20.12,0,0,0-12-4H76A20,20,0,0,0,56,52V72H36A20,20,0,0,0,16,92V204a20,20,0,0,0,20,20H188.89A19.13,19.13,0,0,0,208,204.89V184h20.89A19.13,19.13,0,0,0,248,164.89V76A20,20,0,0,0,228,56ZM184,200H40V96H80l28.8,21.6A12,12,0,0,0,116,120h68Zm40-40H208V116a20,20,0,0,0-20-20H120L93.33,76a20.12,20.12,0,0,0-12-4H80V56h40l28.8,21.6A12,12,0,0,0,156,80h68Z"/></svg>
